src/assets/spades_4.svg

<?xml version="1.0" encoding="UTF-8"?>
<svg xmlns="http://www.w3.org/2000/svg" xmlns:xlink="http://www.w3.org/1999/xlink" width="99px" height="140px" viewBox="0 0 99 140" version="1.1">
<g id="surface1">
<path style="fill-rule:nonzero;fill:rgb(100%,100%,100%);fill-opacity:1;stroke-width:0.755906;stroke-linecap:butt;stroke-linejoin:miter;stroke:rgb(50.196078%,50.196078%,50.196078%);stroke-opacity:1;stroke-miterlimit:4;" d="M 9.297585 719.743103 L 224.702415 719.743103 C 229.632812 719.743103 233.621449 723.747651 233.621449 728.681329 L 233.621449 1043.042991 C 233.621449 1047.976669 229.632812 1051.981217 224.702415 1051.981217 L 9.297585 1051.981217 C 4.367188 1051.981217 0.378551 1047.976669 0.378551 1043.042991 L 0.378551 728.681329 C 0.378551 723.747651 4.367188 719.743103 9.297585 719.743103 Z M 9.297585 719.743103 " transform="matrix(0.423077,0,0,0.42042,0,-302.434542)"/>
<path style=" stroke:none;fill-rule:nonzero;fill:rgb(0%,0%,0%);fill-opacity:1;" d="M 5.457031 25.789062 C 5.457031 25.554688 5.445312 25.386719 5.445312 25.152344 C 5.929688 25.152344 6.457031 25.152344 6.945312 25.152344 C 6.945312 24.597656 6.945312 24.558594 6.945312 24 C 5.996094 24.03125 4.96875 24.101562 4.078125 23.710938 C 3.390625 23.335938 3.199219 22.464844 3.339844 21.746094 C 3.457031 20.933594 3.910156 20.214844 4.503906 19.660156 C 5.273438 18.84375 6.253906 18.289062 7.277344 17.847656 C 8.324219 18.296875 9.328125 18.867188 10.105469 19.707031 C 10.808594 20.363281 11.277344 21.289062 11.261719 22.261719 C 11.277344 22.960938 10.839844 23.699219 10.121094 23.851562 C 9.316406 24.074219 8.5 24.035156 7.671875 24 C 7.671875 24.558594 7.671875 24.597656 7.671875 25.152344 C 8.160156 25.152344 8.605469 25.152344 9.09375 25.152344 C 9.09375 25.386719 9.105469 25.554688 9.105469 25.789062 C 7.992188 25.78125 6.660156 25.78125 5.457031 25.789062 Z M 5.457031 25.789062 "/>
<path style=" stroke:none;fill-rule:nonzero;fill:rgb(0%,0%,0%);fill-opacity:1;" d="M 89.898438 114.210938 C 89.898438 114.445312 89.886719 114.613281 89.886719 114.847656 C 90.371094 114.847656 90.898438 114.847656 91.386719 114.847656 C 91.386719 115.402344 91.386719 115.441406 91.386719 116 C 90.4375 115.96875 89.410156 115.898438 88.519531 116.289062 C 87.832031 116.664062 87.640625 117.535156 87.78125 118.253906 C 87.898438 119.066406 88.351562 119.785156 88.945312 120.339844 C 89.714844 121.15625 90.695312 121.710938 91.71875 122.152344 C 92.765625 121.703125 93.769531 121.132812 94.546875 120.292969 C 95.25 119.636719 95.71875 118.710938 95.703125 117.738281 C 95.71875 117.039062 95.28125 116.300781 94.5625 116.148438 C 93.757812 115.925781 92.941406 115.964844 92.113281 116 C 92.113281 115.441406 92.113281 115.402344 92.113281 114.847656 C 92.601562 114.847656 93.046875 114.847656 93.535156 114.847656 C 93.535156 114.613281 93.546875 114.445312 93.546875 114.210938 C 92.433594 114.21875 91.101562 114.21875 89.898438 114.210938 Z M 89.898438 114.210938 "/>
<path style=" stroke:none;fill-rule:nonzero;fill:rgb(0%,0%,0%);fill-opacity:1;" d="M 19.339844 39.820312 C 19.339844 39.117188 19.300781 38.613281 19.300781 37.910156 C 20.757812 37.910156 22.339844 37.910156 23.796875 37.910156 C 23.796875 36.242188 23.796875 36.125 23.796875 34.457031 C 20.949219 34.550781 17.867188 34.757812 15.199219 33.589844 C 13.136719 32.464844 12.566406 29.84375 12.984375 27.691406 C 13.339844 25.257812 14.699219 23.101562 16.472656 21.4375 C 18.78125 18.984375 21.726562 17.328125 24.800781 15.992188 C 27.9375 17.347656 30.949219 19.058594 33.285156 21.578125 C 35.394531 23.546875 36.796875 26.324219 36.753906 29.234375 C 36.796875 31.335938 35.488281 33.554688 33.328125 34.015625 C 30.914062 34.679688 28.46875 34.5625 25.988281 34.457031 C 25.988281 36.125 25.988281 36.242188 25.988281 37.910156 C 27.445312 37.910156 28.785156 37.910156 30.242188 37.910156 C 30.242188 38.613281 30.28125 39.117188 30.28125 39.820312 C 26.941406 39.796875 22.945312 39.796875 19.339844 39.820312 Z M 19.339844 39.820312 "/>
<path style=" stroke:none;fill-rule:nonzero;fill:rgb(0%,0%,0%);fill-opacity:1;" d="M 68.730469 39.820312 C 68.730469 39.117188 68.691406 38.613281 68.691406 37.910156 C 70.148438 37.910156 71.730469 37.910156 73.1875 37.910156 C 73.1875 36.242188 73.1875 36.125 73.1875 34.457031 C 70.339844 34.550781 67.257812 34.757812 64.589844 33.589844 C 62.527344 32.464844 61.957031 29.84375 62.375 27.691406 C 62.730469 25.257812 64.089844 23.101562 65.863281 21.4375 C 68.171875 18.984375 71.117188 17.328125 74.191406 15.992188 C 77.328125 17.347656 80.339844 19.058594 82.675781 21.578125 C 84.78125 23.546875 86.1875 26.324219 86.144531 29.234375 C 86.1875 31.335938 84.878906 33.554688 82.71875 34.015625 C 80.304688 34.679688 77.859375 34.5625 75.378906 34.457031 C 75.378906 36.125 75.378906 36.242188 75.378906 37.910156 C 76.835938 37.910156 78.171875 37.910156 79.632812 37.910156 C 79.632812 38.613281 79.671875 39.117188 79.671875 39.820312 C 76.332031 39.796875 72.335938 39.796875 68.730469 39.820312 Z M 68.730469 39.820312 "/>
<path style=" stroke:none;fill-rule:nonzero;fill:rgb(0%,0%,0%);fill-opacity:1;" d="M 19.339844 100.179688 C 19.339844 100.882812 19.300781 101.386719 19.300781 102.089844 C 20.757812 102.089844 22.339844 102.089844 23.796875 102.089844 C 23.796875 103.757812 23.796875 103.875 23.796875 105.542969 C 20.949219 105.449219 17.867188 105.242188 15.199219 106.410156 C 13.136719 107.535156 12.566406 110.15625 12.984375 112.308594 C 13.339844 114.742188 14.699219 116.898438 16.472656 118.5625 C 18.78125 121.015625 21.726562 122.671875 24.800781 124.007812 C 27.9375 122.652344 30.949219 120.941406 33.285156 118.421875 C 35.394531 116.453125 36.796875 113.675781 36.753906 110.765625 C 36.796875 108.664062 35.488281 106.445312 33.328125 105.984375 C 30.914062 105.320312 28.46875 105.4375 25.988281 105.542969 C 25.988281 103.875 25.988281 103.757812 25.988281 102.089844 C 27.445312 102.089844 28.785156 102.089844 30.242188 102.089844 C 30.242188 101.386719 30.28125 100.882812 30.28125 100.179688 C 26.941406 100.203125 22.945312 100.203125 19.339844 100.179688 Z M 19.339844 100.179688 "/>
<path style=" stroke:none;fill-rule:nonzero;fill:rgb(0%,0%,0%);fill-opacity:1;" d="M 68.730469 100.179688 C 68.730469 100.882812 68.691406 101.386719 68.691406 102.089844 C 70.148438 102.089844 71.730469 102.089844 73.1875 102.089844 C 73.1875 103.757812 73.1875 103.875 73.1875 105.542969 C 70.339844 105.449219 67.257812 105.242188 64.589844 106.410156 C 62.527344 107.535156 61.957031 110.15625 62.375 112.308594 C 62.730469 114.742188 64.089844 116.898438 65.863281 118.5625 C 68.171875 121.015625 71.117188 122.671875 74.191406 124.007812 C 77.328125 122.652344 80.339844 120.941406 82.675781 118.421875 C 84.78125 116.453125 86.1875 113.675781 86.144531 110.765625 C 86.1875 108.664062 84.878906 106.445312 82.71875 105.984375 C 80.304688 105.320312 77.859375 105.4375 75.378906 105.542969 C 75.378906 103.875 75.378906 103.757812 75.378906 102.089844 C 76.835938 102.089844 78.171875 102.089844 79.632812 102.089844 C 79.632812 101.386719 79.671875 100.882812 79.671875 100.179688 C 76.332031 100.203125 72.335938 100.203125 68.730469 100.179688 Z M 68.730469 100.179688 "/>
<path style=" stroke:none;fill-rule:nonzero;fill:rgb(0%,0%,0%);fill-opacity:1;" d="M 11.261719 14.777344 C 11.261719 14.894531 11.242188 15.007812 11.203125 15.117188 C 11.117188 15.171875 11.023438 15.199219 10.925781 15.199219 L 6.242188 15.199219 C 5.882812 15.199219 5.703125 14.992188 5.703125 14.578125 C 5.703125 14.511719 5.707031 14.398438 5.71875 14.230469 C 5.726562 14.066406 5.734375 13.941406 5.734375 13.851562 C 5.734375 13.660156 5.769531 13.535156 5.84375 13.480469 C 5.894531 13.441406 6.015625 13.421875 6.199219 13.421875 L 8.023438 13.421875 L 8.023438 12.152344 L 3.929688 12.152344 C 3.507812 12.152344 3.296875 11.925781 3.296875 11.480469 C 3.296875 11.402344 3.304688 11.265625 3.316406 11.058594 C 3.332031 10.851562 3.339844 10.683594 3.339844 10.5625 C 3.339844 10.378906 3.433594 10.144531 3.625 9.863281 L 7.839844 3.582031 C 7.972656 3.386719 8.136719 3.285156 8.335938 3.285156 L 9.300781 3.285156 C 9.527344 3.285156 9.644531 3.429688 9.644531 3.714844 L 9.644531 10.457031 C 9.816406 10.457031 10.015625 10.453125 10.242188 10.441406 C 10.46875 10.429688 10.617188 10.421875 10.679688 10.421875 C 10.941406 10.421875 11.105469 10.5 11.167969 10.648438 C 11.230469 10.789062 11.261719 11.148438 11.261719 11.722656 C 11.261719 11.824219 11.253906 11.90625 11.242188 11.960938 C 11.210938 12.085938 11.097656 12.152344 10.90625 12.152344 L 9.644531 12.152344 L 9.644531 13.421875 C 9.824219 13.421875 10.027344 13.417969 10.253906 13.40625 C 10.484375 13.394531 10.628906 13.390625 10.6875 13.390625 C 10.964844 13.390625 11.132812 13.46875 11.1875 13.628906 C 11.238281 13.761719 11.261719 14.144531 11.261719 14.777344 Z M 8.050781 5.9375 C 7.785156 6.398438 6.796875 7.90625 5.089844 10.457031 L 8.023438 10.457031 C 8.023438 10.164062 8.019531 9.664062 8.007812 8.953125 C 7.996094 8.308594 7.988281 7.804688 7.996094 7.441406 C 8 6.890625 8.019531 6.390625 8.050781 5.9375 Z M 8.050781 5.9375 "/>
<path style=" stroke:none;fill-rule:nonzero;fill:rgb(0%,0%,0%);fill-opacity:1;" d="M 87.738281 125.222656 C 87.738281 125.105469 87.757812 124.992188 87.796875 124.882812 C 87.882812 124.828125 87.976562 124.800781 88.074219 124.800781 L 92.757812 124.800781 C 93.117188 124.800781 93.296875 125.007812 93.296875 125.421875 C 93.296875 125.488281 93.292969 125.601562 93.28125 125.769531 C 93.273438 125.933594 93.265625 126.058594 93.265625 126.148438 C 93.265625 126.339844 93.230469 126.464844 93.15625 126.519531 C 93.105469 126.558594 92.984375 126.578125 92.800781 126.578125 L 90.976562 126.578125 L 90.976562 127.847656 L 95.070312 127.847656 C 95.492188 127.847656 95.703125 128.074219 95.703125 128.519531 C 95.703125 128.597656 95.695312 128.734375 95.683594 128.941406 C 95.667969 129.148438 95.660156 129.316406 95.660156 129.4375 C 95.660156 129.621094 95.566406 129.855469 95.375 130.136719 L 91.160156 136.417969 C 91.027344 136.613281 90.863281 136.714844 90.664062 136.714844 L 89.699219 136.714844 C 89.472656 136.714844 89.355469 136.570312 89.355469 136.285156 L 89.355469 129.542969 C 89.183594 129.542969 88.984375 129.546875 88.757812 129.558594 C 88.53125 129.570312 88.382812 129.578125 88.320312 129.578125 C 88.058594 129.578125 87.894531 129.5 87.832031 129.351562 C 87.769531 129.210938 87.738281 128.851562 87.738281 128.277344 C 87.738281 128.175781 87.746094 128.09375 87.757812 128.039062 C 87.789062 127.914062 87.902344 127.847656 88.09375 127.847656 L 89.355469 127.847656 L 89.355469 126.578125 C 89.175781 126.578125 88.972656 126.582031 88.746094 126.59375 C 88.515625 126.605469 88.371094 126.609375 88.3125 126.609375 C 88.035156 126.609375 87.867188 126.53125 87.8125 126.371094 C 87.761719 126.238281 87.738281 125.855469 87.738281 125.222656 Z M 90.949219 134.0625 C 91.214844 133.601562 92.203125 132.09375 93.910156 129.542969 L 90.976562 129.542969 C 90.976562 129.835938 90.980469 130.335938 90.992188 131.046875 C 91.003906 131.691406 91.011719 132.195312 91.003906 132.558594 C 91 133.109375 90.980469 133.609375 90.949219 134.0625 Z M 90.949219 134.0625 "/>
</g>
</svg>

<svg xmlns="http://www.w3.org/2000/svg" width="99" height="140"><path d="M9.298 719.743h215.404c4.93 0 8.92 4.005 8.92 8.938v314.362c0 4.934-3.99 8.938-8.92 8.938H9.298c-4.93 0-8.92-4.004-8.92-8.938V728.681c0-4.933 3.99-8.938 8.92-8.938Zm0 0" style="fill-rule:nonzero;fill:#fff;fill-opacity:1;stroke-width:.755906;stroke-linecap:butt;stroke-linejoin:miter;stroke:gray;stroke-opacity:1;stroke-miterlimit:4" transform="matrix(.42308 0 0 .42042 0 -302.435)"/><path d="M5.457 25.79c0-.235-.012-.403-.012-.638h1.5V24c-.949.031-1.976.102-2.867-.29-.687-.374-.879-1.245-.738-1.964.117-.812.57-1.531 1.164-2.086.77-.816 1.75-1.37 2.773-1.812 1.047.449 2.051 1.02 2.828 1.859.704.656 1.172 1.582 1.157 2.555.015.699-.422 1.437-1.14 1.59-.806.222-1.622.183-2.45.148v1.152h1.422c0 .235.011.403.011.637a283.894 283.894 0 0 0-3.648 0ZM89.898 114.21c0 .235-.011.403-.011.638h1.5V116c-.95-.031-1.977-.102-2.867.29-.688.374-.88 1.245-.739 1.964.117.812.57 1.531 1.164 2.086.77.816 1.75 1.37 2.774 1.812 1.047-.449 2.05-1.02 2.828-1.859.703-.656 1.172-1.582 1.156-2.555.016-.699-.422-1.437-1.14-1.59-.805-.222-1.622-.183-2.45-.148v-1.152h1.422c0-.235.012-.403.012-.637-1.113.008-2.445.008-3.649 0ZM19.34 39.82c0-.703-.04-1.207-.04-1.91h4.497v-3.453c-2.848.094-5.93.3-8.598-.867-2.062-1.125-2.633-3.746-2.215-5.899.356-2.433 1.715-4.59 3.489-6.253 2.308-2.454 5.254-4.11 8.328-5.446 3.137 1.356 6.148 3.067 8.484 5.586 2.11 1.969 3.512 4.746 3.469 7.656.043 2.102-1.266 4.32-3.426 4.782-2.414.664-4.86.547-7.34.441v3.453h4.254c0 .703.04 1.207.04 1.91-3.34-.023-7.337-.023-10.942 0ZM68.73 39.82c0-.703-.039-1.207-.039-1.91h4.496v-3.453c-2.847.094-5.93.3-8.597-.867-2.063-1.125-2.633-3.746-2.215-5.899.355-2.433 1.715-4.59 3.488-6.253 2.309-2.454 5.254-4.11 8.328-5.446 3.137 1.356 6.149 3.067 8.485 5.586 2.105 1.969 3.511 4.746 3.469 7.656.043 2.102-1.266 4.32-3.426 4.782-2.414.664-4.86.547-7.34.441v3.453h4.254c0 .703.039 1.207.039 1.91-3.34-.023-7.336-.023-10.942 0ZM19.34 100.18c0 .703-.04 1.207-.04 1.91h4.497v3.453c-2.848-.094-5.93-.3-8.598.867-2.062 1.125-2.633 3.746-2.215 5.899.356 2.433 1.715 4.59 3.489 6.254 2.308 2.453 5.254 4.109 8.328 5.445 3.137-1.356 6.148-3.067 8.484-5.586 2.11-1.969 3.512-4.746 3.469-7.656.043-2.102-1.266-4.32-3.426-4.782-2.414-.664-4.86-.546-7.34-.441v-3.453h4.254c0-.703.04-1.207.04-1.91-3.34.023-7.337.023-10.942 0ZM68.73 100.18c0 .703-.039 1.207-.039 1.91h4.496v3.453c-2.847-.094-5.93-.3-8.597.867-2.063 1.125-2.633 3.746-2.215 5.899.355 2.433 1.715 4.59 3.488 6.254 2.309 2.453 5.254 4.109 8.328 5.445 3.137-1.356 6.149-3.067 8.485-5.586 2.105-1.969 3.511-4.746 3.469-7.656.043-2.102-1.266-4.32-3.426-4.782-2.414-.664-4.86-.546-7.34-.441v-3.453h4.254c0-.703.039-1.207.039-1.91-3.34.023-7.336.023-10.942 0ZM11.262 14.777c0 .118-.02.23-.059.34a.51.51 0 0 1-.277.082H6.242c-.36 0-.539-.207-.539-.62 0-.067.004-.18.016-.349.008-.164.015-.289.015-.378 0-.192.036-.317.11-.372.05-.039.172-.058.355-.058h1.824v-1.27H3.93c-.422 0-.633-.226-.633-.672 0-.078.008-.214.02-.421.015-.207.023-.375.023-.496 0-.184.094-.418.285-.7L7.84 3.582c.133-.195.297-.297.496-.297H9.3c.226 0 .344.145.344.43v6.742c.171 0 .37-.004.597-.016.227-.011.375-.02.438-.02.261 0 .425.079.488.227.062.141.094.5.094 1.075 0 .101-.008.183-.02.238-.031.125-.144.191-.336.191H9.645v1.27c.18 0 .382-.004.609-.016.23-.011.375-.015.434-.015.277 0 .445.078.5.238.05.133.074.516.074 1.148ZM8.05 5.937c-.266.461-1.254 1.97-2.961 4.52h2.933c0-.293-.003-.793-.015-1.504-.012-.644-.02-1.148-.012-1.512a24.4 24.4 0 0 1 .055-1.503ZM87.738 125.223c0-.118.02-.23.059-.34a.51.51 0 0 1 .277-.082h4.684c.36 0 .539.207.539.62 0 .067-.004.18-.016.349-.008.164-.015.289-.015.378 0 .192-.036.317-.11.372-.05.039-.172.058-.355.058h-1.824v1.27h4.093c.422 0 .633.226.633.672 0 .078-.008.214-.02.421a6.998 6.998 0 0 0-.023.496c0 .184-.094.418-.285.7l-4.215 6.281c-.133.195-.297.297-.496.297H89.7c-.226 0-.344-.145-.344-.43v-6.742c-.171 0-.37.004-.597.016-.227.011-.375.02-.438.02-.261 0-.425-.079-.488-.227-.062-.141-.094-.5-.094-1.075 0-.101.008-.183.02-.238.031-.125.144-.191.336-.191h1.261v-1.27c-.18 0-.382.004-.609.016-.23.011-.375.015-.433.015-.278 0-.446-.078-.5-.238-.051-.133-.075-.516-.075-1.148Zm3.211 8.84c.266-.461 1.254-1.97 2.961-4.52h-2.933c0 .293.003.793.015 1.504.012.644.02 1.148.012 1.512a24.4 24.4 0 0 1-.055 1.504Zm0 0" style="stroke:none;fill-rule:nonzero;fill:#000;fill-opacity:1"/></svg>
